**kern	**silbe	**kern	**silbe	**harmony	**phrase	**leadinstrument	**rhyme	**timestamp	**harte
*ICvox	*	*ICvox	*	*M4/4	*	*	*	*	*M4/4
*VRlead	*	*VRharmonize	*	*	*	*	*	*	*
*Hstimme	*	*Nstimme	*	*	*	*	*	*	*
*G:	*	*G:	*	*G:	*	*	*	*	*G:
*M4/4	*	*M4/4	*	*	*	*	*	*	*
*clefG2	*	*clefG2	*	*	*	*	*	*	*
r;	.	r;	.	1r;	.	r	.	0	N.C.
=1	=1	=1	=1	=1	=1	=1	=1	=1	=1
*>Letter>A	*>Letter>A	*>Letter>A	*>Letter>A	*>Letter>A	*>Letter>A	*>Letter>A	*>Letter>A	*>Letter>A	*>Letter>A
*>Label>Intro	*>Label>Intro	*>Label>Intro	*>Label>Intro	*>Label>Intro	*>Label>Intro	*>Label>Intro	*>Label>Intro	*>Label>Intro	*>Label>Intro
1r	.	1r	.	1GM	newline	guitar	.	0.348	G:5
=2	=2	=2	=2	=2	=2	=2	=2	=2	=2
1r	.	1r	.	1GM	.	guitar	.	1.849	G:5
=3	=3	=3	=3	=3	=3	=3	=3	=3	=3
1r	.	1r	.	1GM	.	guitar	.	3.349	G:5
=4	=4	=4	=4	=4	=4	=4	=4	=4	=4
1r	.	1r	.	1GM	.	guitar	.	4.849	G:5
=5	=5	=5	=5	=5	=5	=5	=5	=5	=5
1r	.	1r	.	1GM	newline	guitar	.	6.349	G:sus4
=6	=6	=6	=6	=6	=6	=6	=6	=6	=6
1r	.	1r	.	1GM	.	guitar	.	7.846	G:sus4
=7	=7	=7	=7	=7	=7	=7	=7	=7	=7
1r	.	1r	.	1GM	.	guitar	.	9.342	G:sus4
=8	=8	=8	=8	=8	=8	=8	=8	=8	=8
1r	.	1r	.	1GM	.	guitar	.	10.839	G:sus4
=9	=9	=9	=9	=9	=9	=9	=9	=9	=9
1r	.	4.d 4.f# 4.a	You're	1DM	newline	voice	.	12.335	D:maj/4
.	.	[8B [8d [8f#	so	.	.	.	.	.	.
.	.	4B] 4d] 4f#]	_	.	.	.	.	.	.
.	.	[4F# [4A [4d	square,	.	.	.	.	.	.
=10	=10	=10	=10	=10	=10	=10	=10	=10	=10
1r	.	1F#] 1A] 1d]	_	.	.	.	.	.	.
=10	=10	=10	=10	=10	=10	=10	=10	=10	=10
.	.	.	.	1DM	.	voice	.	13.782	D:maj/4
=11	=11	=11	=11	=11	=11	=11	=11	=11	=11
1r	.	4B 4d 4f#	ba	1GM	.	voice	.	15.229	G:maj
.	.	8r	.	.	.	.	.	.	.
.	.	8c 8e 8a	by	.	.	.	.	.	.
.	.	[2B [2d [2g	_	.	.	.	.	.	.
=12	=12	=12	=12	=12	=12	=12	=12	=12	=12
1r	.	4.B] 4.d] 4.g]	_	1GM	.	voice	.	16.675	G:maj
.	.	8r	.	.	.	.	.	.	.
.	.	2r	.	.	.	.	.	.	.
=13	=13	=13	=13	=13	=13	=13	=13	=13	=13
1r	.	4.c 4.e 4.g	You're	1CM	newline	voice	.	18.122	C:maj/5
.	.	[8G [8c [8e	so	.	.	.	.	.	.
.	.	4G] 4c] 4e]	_	.	.	.	.	.	.
.	.	[4E [4G [4c	square	.	.	.	.	.	.
=14	=14	=14	=14	=14	=14	=14	=14	=14	=14
1r	.	1E_ 1G_ 1c_	_	.	.	.	.	.	.
=14	=14	=14	=14	=14	=14	=14	=14	=14	=14
.	.	.	.	1CM	.	voice	.	19.561	C:maj/5
=15	=15	=15	=15	=15	=15	=15	=15	=15	=15
1r	.	1E_ 1G_ 1c_	_	1CM	.	voice	.	20.999	C:maj/5
=16	=16	=16	=16	=16	=16	=16	=16	=16	=16
*clefC3	*	*	*	*	*	*	*	*	*
4r	.	2E_ 2G_ 2c]	_	1CM	.	voice	.	22.438	C:maj/5
8aq	_	.	.	.	.	.	.	.	.
[4b-	Oh,	.	.	.	.	.	.	.	.
8b-]	_	8E] 8G] 8B	_	.	.	.	.	.	.
8a	_	8r	.	.	.	.	.	.	.
4g	you	4r	.	.	.	.	.	.	.
=17	=17	=17	=17	=17	=17	=17	=17	=17	=17
*>Letter>B	*>Letter>B	*>Letter>B	*>Letter>B	*>Letter>B	*>Letter>B	*>Letter>B	*>Letter>B	*>Letter>B	*>Letter>B
*>Label>Verse	*>Label>Verse	*>Label>Verse	*>Label>Verse	*>Label>Verse	*>Label>Verse	*>Label>Verse	*>Label>Verse	*>Label>Verse	*>Label>Verse
4d	don't	1r	.	2GM	newline	voice	.	23.877	G:maj
4d	like	.	.	.	.	.	.	.	.
4e	grea-	.	.	2CM	.	voice	.	24.58	C:maj
8e	-sy	.	.	.	.	.	.	.	.
[8e	di	.	.	.	.	.	.	.	.
=18	=18	=18	=18	=18	=18	=18	=18	=18	=18
8e]	_	1r	.	1GM	.	voice	.	25.283	G:maj
4.d	ners	.	.	.	.	.	.	.	.
4r	.	.	.	.	.	.	.	.	.
8r	.	.	.	.	.	.	.	.	.
8g	you	.	.	.	.	.	.	.	.
=19	=19	=19	=19	=19	=19	=19	=19	=19	=19
4g	don't	1r	.	2GM	.	voice	.	26.689	G:maj
4g	like	.	.	.	.	.	.	.	.
8aq	_	.	.	.	.	.	.	.	.
4b-	slea-	.	.	2CM	.	voice	.	27.392	C:maj
4a	-zy	.	.	.	.	.	.	.	.
=20	=20	=20	=20	=20	=20	=20	=20	=20	=20
8gq	_	.	.	.	.	.	.	.	.
2a	bands	1r	.	1GM	.	voice	A	28.095	G:maj
4r	.	.	.	.	.	.	.	.	.
8r	.	.	.	.	.	.	.	.	.
8d	you	.	.	.	.	.	.	.	.
=21	=21	=21	=21	=21	=21	=21	=21	=21	=21
4d	just	1r	.	2GM	newline	voice	.	29.501	G:maj
8d	wan-	.	.	.	.	.	.	.	.
8d	-na	.	.	.	.	.	.	.	.
8dq	_	.	.	.	.	.	.	.	.
4e	go	.	.	2CM	.	voice	B	30.201	C:maj
8B	to	.	.	.	.	.	.	.	.
8B	a	.	.	.	.	.	.	.	.
=22	=22	=22	=22	=22	=22	=22	=22	=22	=22
8d	mo-	1r	.	2GM	.	voice	.	30.902	G:maj
4d	-vie	.	.	.	.	.	.	.	.
8e	show	.	.	.	.	.	B	.	.
4r	.	.	.	2CM	.	voice	.	31.603	C:maj
8r	.	.	.	.	.	.	.	.	.
8d	and	.	.	.	.	.	.	.	.
=23	=23	=23	=23	=23	=23	=23	=23	=23	=23
4g	sit	1r	.	2GM	.	voice	.	32.304	G:maj
4g	there	.	.	.	.	.	.	.	.
8r	.	.	.	2CM	.	voice	.	33.005	C:maj
8a	hol-	.	.	.	.	.	.	.	.
8g	-ding	.	.	.	.	.	.	.	.
8aq	_	.	.	.	.	.	.	.	.
[8b	hands	.	.	.	.	.	A	.	.
=24	=24	=24	=24	=24	=24	=24	=24	=24	=24
4.b]	_	4r	.	1GM	.	voice	.	33.705	G:maj
.	.	8r	.	.	.	.	.	.	.
8ccq	_	8aq	_	.	.	.	.	.	.
[8dd	you're	[8g [8b	you're	.	.	.	.	.	.
4dd]	_	4g] 4b]	_	.	.	.	.	.	.
4b	so	4d 4g	so	.	.	.	.	.	.
=25	=25	=25	=25	=25	=25	=25	=25	=25	=25
*>Letter>C	*>Letter>C	*>Letter>C	*>Letter>C	*>Letter>C	*>Letter>C	*>Letter>C	*>Letter>C	*>Letter>C	*>Letter>C
*>Label>Chorus	*>Label>Chorus	*>Label>Chorus	*>Label>Chorus	*>Label>Chorus	*>Label>Chorus	*>Label>Chorus	*>Label>Chorus	*>Label>Chorus	*>Label>Chorus
4g	square	4B 4e	square	.	.	.	C	.	.
2.e	_	2.G 2.c	_	1CMm	newline	voice	.	35.107	C:7
=26	=26	=26	=26	=26	=26	=26	=26	=26	=26
4r	.	1r	.	4DMm	.	voice	.	36.47	D:7
8A	Ba-	.	.	2.N	.	voice	.	36.811	N.C.
8F#	-by,	.	.	.	.	.	.	.	.
8d	I	.	.	.	.	.	.	.	.
8B	don't	.	.	.	.	.	.	.	.
4F#	care.	.	.	.	.	.	C	.	.
=27	=27	=27	=27	=27	=27	=27	=27	=27	=27
*>Letter>D	*>Letter>D	*>Letter>D	*>Letter>D	*>Letter>D	*>Letter>D	*>Letter>D	*>Letter>D	*>Letter>D	*>Letter>D
*>Label>Interlude	*>Label>Interlude	*>Label>Interlude	*>Label>Interlude	*>Label>Interlude	*>Label>Interlude	*>Label>Interlude	*>Label>Interlude	*>Label>Interlude	*>Label>Interlude
1r	.	1r	.	1GM	newline	guitar	.	37.834	G:5
=28	=28	=28	=28	=28	=28	=28	=28	=28	=28
1r	.	1r	.	1GM	.	guitar	.	39.243	G:5
=29	=29	=29	=29	=29	=29	=29	=29	=29	=29
1r	.	1r	.	1GM	.	guitar	.	40.652	G:5
=30	=30	=30	=30	=30	=30	=30	=30	=30	=30
2r	.	1r	.	1GM	.	guitar	.	42.061	G:5
4r	.	.	.	.	.	.	.	.	.
8r	.	.	.	.	.	.	.	.	.
8B	You	.	.	.	.	.	.	.	.
=31	=31	=31	=31	=31	=31	=31	=31	=31	=31
*>Letter>B	*>Letter>B	*>Letter>B	*>Letter>B	*>Letter>B	*>Letter>B	*>Letter>B	*>Letter>B	*>Letter>B	*>Letter>B
*>Label>Verse	*>Label>Verse	*>Label>Verse	*>Label>Verse	*>Label>Verse	*>Label>Verse	*>Label>Verse	*>Label>Verse	*>Label>Verse	*>Label>Verse
8c	don't	1r	.	2GM	newline	voice	.	43.47	G:maj
8d	l-	.	.	.	.	.	.	.	.
4d	-like	.	.	.	.	.	.	.	.
8e	go-	.	.	2CM	.	voice	.	44.171	C:maj
8e	-ing	.	.	.	.	.	.	.	.
8e	to	.	.	.	.	.	.	.	.
[8e	par	.	.	.	.	.	.	.	.
=32	=32	=32	=32	=32	=32	=32	=32	=32	=32
8e]	_	1r	.	1GM	.	voice	.	44.873	G:maj
4.d	ties	.	.	.	.	.	.	.	.
4r	.	.	.	.	.	.	.	.	.
8r	.	.	.	.	.	.	.	.	.
8g	to	.	.	.	.	.	.	.	.
=33	=33	=33	=33	=33	=33	=33	=33	=33	=33
8g	toot	1r	.	2GM	.	voice	.	46.275	G:maj
8e	and	.	.	.	.	.	.	.	.
4g	talk	.	.	.	.	.	.	.	.
8aq	_	.	.	.	.	.	.	.	.
4b-	all	.	.	2CM	.	voice	.	46.976	C:maj
4a	night	.	.	.	.	.	.	.	.
=34	=34	=34	=34	=34	=34	=34	=34	=34	=34
8gq	_	.	.	.	.	.	.	.	.
2a	long	1r	.	1GM	.	voice	D	47.678	G:maj
4r	.	.	.	.	.	.	.	.	.
8r	.	.	.	.	.	.	.	.	.
8d	You	.	.	.	.	.	.	.	.
=35	=35	=35	=35	=35	=35	=35	=35	=35	=35
4B	just	1r	.	2GM	newline	voice	.	49.08	G:maj
8d	wan-	.	.	.	.	.	.	.	.
8d	-na	.	.	.	.	.	.	.	.
8dq	_	.	.	.	.	.	.	.	.
4~e	park	.	.	2CM	.	voice	E	49.784	C:maj
8B	where	.	.	.	.	.	.	.	.
8B	it's	.	.	.	.	.	.	.	.
=36	=36	=36	=36	=36	=36	=36	=36	=36	=36
8r	.	1r	.	2GM	.	voice	.	50.488	G:maj
4d	nice	.	.	.	.	.	.	.	.
8B	and	.	.	.	.	.	.	.	.
8e	dark	.	.	2CM	.	voice	E	51.192	C:maj
4r	.	.	.	.	.	.	.	.	.
8B	and	.	.	.	.	.	.	.	.
=37	=37	=37	=37	=37	=37	=37	=37	=37	=37
4g	kiss	1r	.	2GM	.	voice	.	51.896	G:maj
4g	me	.	.	.	.	.	.	.	.
8r	.	.	.	2CM	.	voice	.	52.6	C:maj
8ccq	_	.	.	.	.	.	.	.	.
8dd	sweet	.	.	.	.	.	.	.	.
4b	and	.	.	.	.	.	.	.	.
=38	=38	=38	=38	=38	=38	=38	=38	=38	=38
4g	strong	4r	.	1GM	.	voice	D	53.304	G:maj
8r	.	8r	.	.	.	.	.	.	.
8ccq	_	8aq	_	.	.	.	.	.	.
[8dd	you're	[8g [8b	you're	.	.	.	.	.	.
4dd]	_	4g] 4b]	_	.	.	.	.	.	.
4b	so	4d 4g	so	.	.	.	.	.	.
=39	=39	=39	=39	=39	=39	=39	=39	=39	=39
*>Letter>C	*>Letter>C	*>Letter>C	*>Letter>C	*>Letter>C	*>Letter>C	*>Letter>C	*>Letter>C	*>Letter>C	*>Letter>C
*>Label>Chorus	*>Label>Chorus	*>Label>Chorus	*>Label>Chorus	*>Label>Chorus	*>Label>Chorus	*>Label>Chorus	*>Label>Chorus	*>Label>Chorus	*>Label>Chorus
4g	square	4B 4e	square	.	.	.	C	.	.
2.e	_	2.G 2.c	_	1CMm	newline	voice	.	54.712	C:7
=40	=40	=40	=40	=40	=40	=40	=40	=40	=40
4r	.	1r	.	4DMm	.	voice	.	56.101	D:7
8c	Dar-	.	.	2.N	.	voice	.	56.449	N.C.
8G	-ling,	.	.	.	.	.	.	.	.
8dq	_	.	.	.	.	.	.	.	.
8.e	I	.	.	.	.	.	.	.	.
16dQ	_	.	.	.	.	.	.	.	.
[16e	don't	.	.	.	.	.	.	.	.
8e]	_	.	.	.	.	.	.	.	.
8d	care	.	.	.	.	.	C	.	.
=41	=41	=41	=41	=41	=41	=41	=41	=41	=41
8A	_	1r	.	1GM	.	voice	.	57.49	G:maj
8r	.	.	.	.	.	.	.	.	.
4r	.	.	.	.	.	.	.	.	.
2r	.	.	.	.	.	.	.	.	.
=42	=42	=42	=42	=42	=42	=42	=42	=42	=42
2r	.	1r	.	1GM	.	voice	.	58.879	G:maj
4r	.	.	.	.	.	.	.	.	.
8r	.	.	.	.	.	.	.	.	.
8d	You	.	.	.	.	.	.	.	.
=43	=43	=43	=43	=43	=43	=43	=43	=43	=43
*>Letter>E	*>Letter>E	*>Letter>E	*>Letter>E	*>Letter>E	*>Letter>E	*>Letter>E	*>Letter>E	*>Letter>E	*>Letter>E
*>Label>Bridge	*>Label>Bridge	*>Label>Bridge	*>Label>Bridge	*>Label>Bridge	*>Label>Bridge	*>Label>Bridge	*>Label>Bridge	*>Label>Bridge	*>Label>Bridge
8dq	_	.	.	.	.	.	.	.	.
4e	don't	1r	.	1CMm	newline	voice	.	60.268	C:7
4g	know	.	.	.	.	.	.	.	.
4g	a-	.	.	.	.	.	.	.	.
8g	-ny	.	.	.	.	.	.	.	.
8g	dance	.	.	.	.	.	.	.	.
=44	=44	=44	=44	=44	=44	=44	=44	=44	=44
4a	_	1r	.	1CMm	.	voice	.	61.662	C:7
8a	steps	.	.	.	.	.	.	.	.
8r	.	.	.	.	.	.	.	.	.
8r	.	.	.	.	.	.	.	.	.
8g	that	.	.	.	.	.	.	.	.
8g	are	.	.	.	.	.	.	.	.
8aq	_	.	.	.	.	.	.	.	.
[8b	new	.	.	.	.	.	F	.	.
=45	=45	=45	=45	=45	=45	=45	=45	=45	=45
2b_	_	1r	.	1GM	.	voice	.	63.057	G:maj
8b]	_	.	.	.	.	.	.	.	.
8d	_	.	.	.	.	.	.	.	.
8e	_	.	.	.	.	.	.	.	.
[8d	_	.	.	.	.	.	.	.	.
=46	=46	=46	=46	=46	=46	=46	=46	=46	=46
4d]	_	1r	.	1GMm	.	voice	.	64.451	G:7
4B	_	.	.	.	.	.	.	.	.
4r	.	.	.	.	.	.	.	.	.
8r	.	.	.	.	.	.	.	.	.
8d	But	.	.	.	.	.	.	.	.
=47	=47	=47	=47	=47	=47	=47	=47	=47	=47
8dq	_	.	.	.	.	.	.	.	.
4e	no-	1r	.	1CMm	newline	voice	.	65.845	C:7
8g	-bo-	.	.	.	.	.	.	.	.
8g	-dy	.	.	.	.	.	.	.	.
4g	else	.	.	.	.	.	.	.	.
8e	can	.	.	.	.	.	.	.	.
8aq	_	.	.	.	.	.	.	.	.
[8b	love	.	.	.	.	.	.	.	.
=48	=48	=48	=48	=48	=48	=48	=48	=48	=48
8b]	_	1r	.	1C#d	.	voice	.	67.211	C#:dim
8gq	_	.	.	.	.	.	.	.	.
4.a	me	.	.	.	.	.	.	.	.
8r	.	.	.	.	.	.	.	.	.
8g	the	.	.	.	.	.	.	.	.
4g	way	.	.	.	.	.	.	.	.
=49	=49	=49	=49	=49	=49	=49	=49	=49	=49
8aq	_	.	.	.	.	.	.	.	.
4b	you	1r	.	4DM	.	voice	.	68.576	D:maj
8gq	_	.	.	.	.	.	.	.	.
2.a	do!	.	.	2.N	.	voice	F	68.918	N.C.
=50	=50	=50	=50	=50	=50	=50	=50	=50	=50
2r	.	1r	.	1N	.	voice	.	69.942	N.C.
4r	.	.	.	.	.	.	.	.	.
8r	.	.	.	.	.	.	.	.	.
8B	I	.	.	.	.	.	.	.	.
=51	=51	=51	=51	=51	=51	=51	=51	=51	=51
*>Letter>B	*>Letter>B	*>Letter>B	*>Letter>B	*>Letter>B	*>Letter>B	*>Letter>B	*>Letter>B	*>Letter>B	*>Letter>B
*>Label>Verse	*>Label>Verse	*>Label>Verse	*>Label>Verse	*>Label>Verse	*>Label>Verse	*>Label>Verse	*>Label>Verse	*>Label>Verse	*>Label>Verse
4d	don't	1r	.	2GM	newline	voice	.	71.307	G:maj
4d	know	.	.	.	.	.	.	.	.
8dq	_	.	.	.	.	.	.	.	.
4e	why	.	.	2CM	.	voice	.	71.998	C:maj
8c	my	.	.	.	.	.	.	.	.
[8e	heart	.	.	.	.	.	.	.	.
=52	=52	=52	=52	=52	=52	=52	=52	=52	=52
8e]	_	1r	.	1GM	.	voice	.	72.689	G:maj
4.d	flips	.	.	.	.	.	.	.	.
2r	.	.	.	.	.	.	.	.	.
=53	=53	=53	=53	=53	=53	=53	=53	=53	=53
8g	I	1r	.	2GM	.	voice	.	74.07	G:maj
8g	on-	.	.	.	.	.	.	.	.
4g	-ly	.	.	.	.	.	.	.	.
8aq	_	.	.	.	.	.	.	.	.
4b-	know	.	.	2CM	.	voice	.	74.761	C:maj
4a	it	.	.	.	.	.	.	.	.
=54	=54	=54	=54	=54	=54	=54	=54	=54	=54
8gq	_	.	.	.	.	.	.	.	.
2a	does	1r	.	1GM	.	voice	G	75.452	G:maj
4r	.	.	.	.	.	.	.	.	.
8r	.	.	.	.	.	.	.	.	.
8d	I	.	.	.	.	.	.	.	.
=55	=55	=55	=55	=55	=55	=55	=55	=55	=55
4d	won-	1r	.	2GM	newline	voice	.	76.833	G:maj
4d	-der	.	.	.	.	.	.	.	.
8dq	_	.	.	.	.	.	.	.	.
4e	why	.	.	2CM	.	voice	.	77.524	C:maj
8r	.	.	.	.	.	.	.	.	.
8B	I	.	.	.	.	.	.	.	.
=56	=56	=56	=56	=56	=56	=56	=56	=56	=56
4d	love	1r	.	2GM	.	voice	.	78.216	G:maj
8B	you,	.	.	.	.	.	.	.	.
[8e	ba	.	.	.	.	.	.	.	.
8e]	_	.	.	2CM	.	voice	.	78.908	C:maj
8e	by	.	.	.	.	.	.	.	.
8r	.	.	.	.	.	.	.	.	.
8d	I	.	.	.	.	.	.	.	.
=57	=57	=57	=57	=57	=57	=57	=57	=57	=57
4g	guess	1r	.	2GM	.	voice	.	79.599	G:maj
4g	it's	.	.	.	.	.	.	.	.
4a	just	.	.	2CM	.	voice	.	80.291	C:maj
8g	be-	.	.	.	.	.	.	.	.
8aq	_	.	.	.	.	.	.	.	.
[8b	-cause	.	.	.	.	.	G	.	.
=58	=58	=58	=58	=58	=58	=58	=58	=58	=58
4.b]	_	2r	.	1GM	.	voice	.	80.982	G:maj
8a	y-	.	.	.	.	.	.	.	.
4b	-you're	4e 4g	You're	.	.	.	.	.	.
4a	so	4d 4f#	so	.	.	.	.	.	.
=59	=59	=59	=59	=59	=59	=59	=59	=59	=59
*>Letter>C	*>Letter>C	*>Letter>C	*>Letter>C	*>Letter>C	*>Letter>C	*>Letter>C	*>Letter>C	*>Letter>C	*>Letter>C
*>Label>Chorus	*>Label>Chorus	*>Label>Chorus	*>Label>Chorus	*>Label>Chorus	*>Label>Chorus	*>Label>Chorus	*>Label>Chorus	*>Label>Chorus	*>Label>Chorus
4g	square	4c 4e	square!	.	.	.	C	.	.
2.e	_	2.G 2.c	_	1CMm	newline	voice	.	82.365	C:7
=60	=60	=60	=60	=60	=60	=60	=60	=60	=60
4r	.	1r	.	4DMm	.	voice	.	83.732	D:7
8G	Ba-	.	.	2.N	.	voice	.	84.074	N.C.
8G	-by,	.	.	.	.	.	.	.	.
8e	I	.	.	.	.	.	.	.	.
8B	don't	.	.	.	.	.	.	.	.
4E	care.	.	.	.	.	.	C	.	.
=61	=61	=61	=61	=61	=61	=61	=61	=61	=61
1r	.	1r	.	1GM	.	voice	.	85.099	G:5
=62	=62	=62	=62	=62	=62	=62	=62	=62	=62
1r	.	1r	.	1GM	.	voice	.	86.467	G:5
=63	=63	=63	=63	=63	=63	=63	=63	=63	=63
*>Letter>E	*>Letter>E	*>Letter>E	*>Letter>E	*>Letter>E	*>Letter>E	*>Letter>E	*>Letter>E	*>Letter>E	*>Letter>E
*>Label>Instrumental	*>Label>Instrumental	*>Label>Instrumental	*>Label>Instrumental	*>Label>Instrumental	*>Label>Instrumental	*>Label>Instrumental	*>Label>Instrumental	*>Label>Instrumental	*>Label>Instrumental
1r	.	1r	.	1CMm	newline	horns	.	87.834	C:7
=64	=64	=64	=64	=64	=64	=64	=64	=64	=64
1r	.	1r	.	1CMm	.	horns	.	89.22	C:7
=65	=65	=65	=65	=65	=65	=65	=65	=65	=65
1r	.	1r	.	1GM	.	horns	.	90.607	G:maj
=66	=66	=66	=66	=66	=66	=66	=66	=66	=66
1r	.	1r	.	1GMm	.	horns	.	91.993	G:7
=67	=67	=67	=67	=67	=67	=67	=67	=67	=67
1r	.	1r	.	1CMm	newline	horns	.	93.38	C:7
=68	=68	=68	=68	=68	=68	=68	=68	=68	=68
1r	.	1r	.	1C#d	.	horns	.	94.791	C#:dim
=69	=69	=69	=69	=69	=69	=69	=69	=69	=69
1r	.	1r	.	1DM	.	horns	.	96.202	D:1
=70	=70	=70	=70	=70	=70	=70	=70	=70	=70
4r	.	1r	.	1N	.	horns	.	97.613	N.C.
4b-	Oh,	.	.	.	.	.	.	.	.
4a	_	.	.	.	.	.	.	.	.
4g	I	.	.	.	.	.	.	.	.
=71	=71	=71	=71	=71	=71	=71	=71	=71	=71
*>Letter>B	*>Letter>B	*>Letter>B	*>Letter>B	*>Letter>B	*>Letter>B	*>Letter>B	*>Letter>B	*>Letter>B	*>Letter>B
*>Label>Verse	*>Label>Verse	*>Label>Verse	*>Label>Verse	*>Label>Verse	*>Label>Verse	*>Label>Verse	*>Label>Verse	*>Label>Verse	*>Label>Verse
4g	don't	1r	.	2GM	newline	voice	.	99.023	G:maj
4g	know	.	.	.	.	.	.	.	.
8aq	_	.	.	.	.	.	.	.	.
4b-	why	.	.	2CM	.	voice	.	99.722	C:maj
8a	my	.	.	.	.	.	.	.	.
[8a	heart	.	.	.	.	.	.	.	.
=72	=72	=72	=72	=72	=72	=72	=72	=72	=72
8a]	_	1r	.	1GM	.	voice	.	100.421	G:maj
4.g	flips	.	.	.	.	.	.	.	.
4r	.	.	.	.	.	.	.	.	.
8r	.	.	.	.	.	.	.	.	.
8d	I	.	.	.	.	.	.	.	.
=73	=73	=73	=73	=73	=73	=73	=73	=73	=73
4d	on-	1r	.	2GM	.	voice	.	101.818	G:maj
4d	-ly	.	.	.	.	.	.	.	.
8f#q	_	.	.	.	.	.	.	.	.
8e	know	.	.	2CM	.	voice	.	102.517	C:maj
4B	it	.	.	.	.	.	.	.	.
8eq	_	.	.	.	.	.	.	.	.
[8d	does	.	.	.	.	.	G	.	.
=74	=74	=74	=74	=74	=74	=74	=74	=74	=74
2d]	_	1r	.	1GM	.	voice	.	103.215	G:maj
4r	.	.	.	.	.	.	.	.	.
8r	.	.	.	.	.	.	.	.	.
8A	I	.	.	.	.	.	.	.	.
=75	=75	=75	=75	=75	=75	=75	=75	=75	=75
4B	won-	1r	.	2GM	newline	voice	.	104.613	G:maj
4d	-der	.	.	.	.	.	.	.	.
8dq	_	.	.	.	.	.	.	.	.
4e	why	.	.	2CM	.	voice	.	105.306	C:maj
8r	.	.	.	.	.	.	.	.	.
8B	I	.	.	.	.	.	.	.	.
=76	=76	=76	=76	=76	=76	=76	=76	=76	=76
6d	love	1r	.	2GM	.	voice	.	105.999	G:maj
6e	you	.	.	.	.	.	.	.	.
[6e	ba	.	.	.	.	.	.	.	.
8e]	_	.	.	2CM	.	voice	.	106.693	C:maj
8e	by	.	.	.	.	.	.	.	.
8r	.	.	.	.	.	.	.	.	.
8d	I	.	.	.	.	.	.	.	.
=77	=77	=77	=77	=77	=77	=77	=77	=77	=77
4g	guess	1r	.	2GM	.	voice	.	107.386	G:maj
4g	it's	.	.	.	.	.	.	.	.
6r	.	.	.	2CM	.	voice	.	108.08	C:maj
6b-	just	.	.	.	.	.	.	.	.
6a	be-	.	.	.	.	.	.	.	.
=78	=78	=78	=78	=78	=78	=78	=78	=78	=78
8gq	_	.	.	.	.	.	.	.	.
4.a	-cause,	2r	.	1GM	.	voice	G	108.773	G:maj
8a	you're	.	.	.	.	.	.	.	.
4b	_	4e 4g	You're	.	.	.	.	.	.
4a	so	4d 4f#	so	.	.	.	.	.	.
=79	=79	=79	=79	=79	=79	=79	=79	=79	=79
*>Letter>C	*>Letter>C	*>Letter>C	*>Letter>C	*>Letter>C	*>Letter>C	*>Letter>C	*>Letter>C	*>Letter>C	*>Letter>C
*>Label>Chorus	*>Label>Chorus	*>Label>Chorus	*>Label>Chorus	*>Label>Chorus	*>Label>Chorus	*>Label>Chorus	*>Label>Chorus	*>Label>Chorus	*>Label>Chorus
4g	square	4c 4e	square!	.	.	.	C	.	.
2.e	_	2.G 2.c	_	1CMm	newline	voice	.	110.16	C:7
=80	=80	=80	=80	=80	=80	=80	=80	=80	=80
2r	.	1r	.	4DMm	.	voice	.	111.535	D:7
.	.	.	.	2.N	.	voice	.	111.878	N.C.
8e	I	.	.	.	.	.	.	.	.
8B	don't	.	.	.	.	.	.	.	.
4E	care.	.	.	.	.	.	C	.	.
=81	=81	=81	=81	=81	=81	=81	=81	=81	=81
*>Letter>A	*>Letter>A	*>Letter>A	*>Letter>A	*>Letter>A	*>Letter>A	*>Letter>A	*>Letter>A	*>Letter>A	*>Letter>A
*>Label>Outro	*>Label>Outro	*>Label>Outro	*>Label>Outro	*>Label>Outro	*>Label>Outro	*>Label>Outro	*>Label>Outro	*>Label>Outro	*>Label>Outro
3f# 3b 3dd	You're	1r	.	1DM	newline	voice	.	112.909	D:maj/4
[3d [3f# [3b	so	.	.	.	.	.	.	.	.
6d] 6f#] 6b]	_	.	.	.	.	.	.	.	.
[6G [6d	square!	.	.	.	.	.	.	.	.
=82	=82	=82	=82	=82	=82	=82	=82	=82	=82
1G_ 1d_	_	1r	.	.	.	.	.	.	.
=82	=82	=82	=82	=82	=82	=82	=82	=82	=82
.	.	.	.	1DM	.	voice	.	114.329	D:maj/4
=83	=83	=83	=83	=83	=83	=83	=83	=83	=83
1G] 1d]	_	1r	.	1DM	.	voice	.	115.748	D:maj/4
=84	=84	=84	=84	=84	=84	=84	=84	=84	=84
1r	.	1r	.	1DM	.	voice	.	117.167	D:maj/4
=85	=85	=85	=85	=85	=85	=85	=85	=85	=85
3e 3g 3cc	You're	1r	.	1CM	newline	voice	.	118.586	C:maj/5
3c 3e 3g	so	.	.	.	.	.	.	.	.
[3E [3G [3c	square	.	.	.	.	.	.	.	.
=86	=86	=86	=86	=86	=86	=86	=86	=86	=86
1E_ 1G_ 1c_	_	1r	.	.	.	.	.	.	.
=86	=86	=86	=86	=86	=86	=86	=86	=86	=86
.	.	.	.	1CM	.	voice	.	119.973	C:maj/5
=87	=87	=87	=87	=87	=87	=87	=87	=87	=87
2.E] 2.G] 2.c]	_	1r	.	1CM	.	voice	.	121.359	C:maj/5
4r	.	.	.	.	.	.	.	.	.
=88	=88	=88	=88	=88	=88	=88	=88	=88	=88
1r	.	1r	.	1CM	.	voice	.	122.745	C:maj/5
=89	=89	=89	=89	=89	=89	=89	=89	=89	=89
3f# 3a 3dd	You're	1r	.	1DM	newline	voice	.	124.131	D:maj/4
[3d [3f# [3a	so	.	.	.	.	.	.	.	.
6d] 6f#] 6a]	_	.	.	.	.	.	.	.	.
[6d [6f#	square!	.	.	.	.	.	.	.	.
=90	=90	=90	=90	=90	=90	=90	=90	=90	=90
1d_ 1f#_	_	1r	.	.	.	.	.	.	.
=90	=90	=90	=90	=90	=90	=90	=90	=90	=90
.	.	.	.	1DM	.	voice	.	125.553	D:maj/4
=91	=91	=91	=91	=91	=91	=91	=91	=91	=91
2d] 2f#]	_	1r	.	1DM	.	voice	.	126.974	D:maj/4
2r	.	.	.	.	.	.	.	.	.
=92	=92	=92	=92	=92	=92	=92	=92	=92	=92
1r	.	1r	.	1DM	.	voice	.	128.395	D:maj/4
=93	=93	=93	=93	=93	=93	=93	=93	=93	=93
3e 3g 3cc	You're	1r	.	1CM	newline	voice	.	129.817	C:maj/5
3c 3e 3g	so	.	.	.	.	.	.	.	.
[3E [3G [3c	square	.	.	.	.	.	.	.	.
=94	=94	=94	=94	=94	=94	=94	=94	=94	=94
1E_ 1G_ 1c_	_	1r	.	.	.	.	.	.	.
=94	=94	=94	=94	=94	=94	=94	=94	=94	=94
.	.	.	.	1CM	.	voice	.	131.21	C:maj/5
=95	=95	=95	=95	=95	=95	=95	=95	=95	=95
4E] 4G] 4c]	_	1r	.	1CM	.	voice	.	132.604	C:maj/5
4r	.	.	.	.	.	.	.	.	.
2r	.	.	.	.	.	.	.	.	.
=96	=96	=96	=96	=96	=96	=96	=96	=96	=96
1r	.	1r	.	1CM	.	voice	.	133.998	C:maj/5
=97	=97	=97	=97	=97	=97	=97	=97	=97	=97
3f# 3a 3dd	You're	1r	.	1DM	newline	fadeout	.	135.391	D:maj/4
[3d [3f# [3a	so	.	.	.	.	.	.	.	.
6d] 6f#] 6a]	_	.	.	.	.	.	.	.	.
[6d [6f#	square!	.	.	.	.	.	.	.	.
=98	=98	=98	=98	=98	=98	=98	=98	=98	=98
1d_ 1f#_	_	1r	.	.	.	.	.	.	.
=98	=98	=98	=98	=98	=98	=98	=98	=98	=98
.	.	.	.	1DM	.	fadeout	.	136.788	D:maj/4
=99	=99	=99	=99	=99	=99	=99	=99	=99	=99
2d] 2f#]	_	1r	.	1DM	.	fadeout	.	138.185	D:maj/4
2r	.	.	.	.	.	.	.	.	.
=100	=100	=100	=100	=100	=100	=100	=100	=100	=100
1r	.	1r	.	1DM	.	fadeout	.	139.582	D:maj/4
=101	=101	=101	=101	=101	=101	=101	=101	=101	=101
3e 3g 3cc	You're	1r	.	1CM	newline	fadeout	.	140.979	C:maj/5
3c 3e 3g	so	.	.	.	.	.	.	.	.
[3E [3G [3c	square	.	.	.	.	.	.	.	.
=102	=102	=102	=102	=102	=102	=102	=102	=102	=102
1E_ 1G_ 1c_	_	1r	.	.	.	.	.	.	.
=102	=102	=102	=102	=102	=102	=102	=102	=102	=102
.	.	.	.	1CM	.	fadeout	.	142.355	C:maj/5
=103	=103	=103	=103	=103	=103	=103	=103	=103	=103
4E] 4G] 4c]	_	1r	.	1CM	.	fadeout	.	143.731	C:maj/5
4r	.	.	.	.	.	.	.	.	.
2r	.	.	.	.	.	.	.	.	.
=104	=104	=104	=104	=104	=104	=104	=104	=104	=104
1r	.	1r	.	1CM	.	fadeout	.	145.107	C:maj/5
=105	=105	=105	=105	=105	=105	=105	=105	=105	=105
1r	.	1r	.	1DM	newline	fadeout	.	146.484	D:maj/4
=106	=106	=106	=106	=106	=106	=106	=106	=106	=106
1r	.	1r	.	1DM	.	fadeout	.	147.907	D:maj/4
=107	=107	=107	=107	=107	=107	=107	=107	=107	=107
1r	.	1r	.	1DM	.	fadeout	.	149.331	D:maj/4
=108	=108	=108	=108	=108	=108	=108	=108	=108	=108
1r	.	1r	.	1DM	.	fadeout	.	150.755	D:maj/4
=109	=109	=109	=109	=109	=109	=109	=109	=109	=109
1r	.	1r	.	1CM	newline	voice	.	152.179	C:maj/5
=110	=110	=110	=110	=110	=110	=110	=110	=110	=110
1r	.	1r	.	1CM	.	voice	.	153.498	C:maj/5
=111	=111	=111	=111	=111	=111	=111	=111	=111	=111
1r	.	1r	.	1CM	.	voice	.	154.817	C:maj/5
=112	=112	=112	=112	=112	=112	=112	=112	=112	=112
1r	.	1r	.	1CM	.	voice	.	156.136	C:maj/5
r;	.	r;	.	1r;	.	r	.	157.455	N.C.
r;	.	r;	.	1r;	.	r	.	158.041	N.C.
*-	*-	*-	*-	*-	*-	*-	*-	*-	*-
!!!BillboardChartDate: 1982/12/11
!!!BillboardPeak: 47
!!!BillboardWeeksOnChart: 9
!!!COC: Joni Mitchell
!!!ENC: Nathaniel Condit-Schultz
!!!EST: Awating manual error checking and editing.
!!!OTL: (You're So Square) Baby I Don't Care
!!!RDF**chordsym: original McGill chord annotation + (implied pitch class set, with bass pitch in first position)
!!!RDF**harmony: **recip + pitch class of root + harmonic quality
!!!RDF**leadinstrument: original McGill primary instrumentation annotation
!!!RDF**phrase: newline = linebreak in original McGill transcription
!!!RDF**timestamp: McGill audio timestamp in seconds
!!!RDT: 2017/01/12/
!!!SampleActualRank: 47
!!!SampleID#: 0417
!!!SampleTargetRank: 47
